X: 32
T: Mason's Apron, The
Z: SamiC
S: https://thesession.org/tunes/74#setting50868
R: reel
M: 4/4
L: 1/8
K: Amaj
|:af|ec~c2 BAFA|EFAB BcBA|FB~B2 cB~B2|cefg ~a2af|
ec~c2 BAFA|EFAB c2Bc|dcde fa{b}af|edcB A2:|
|:ed| (3cBA eA fAeA|(3cBA eA fAeA|df~f2 af~f2|dfef afec|
Acec fcec|Acec fcec|dcde fa{b}af|edcB A2:|

